**kern	**kern	**dynam
*part1	*part1	*part1
*staff2	*staff1	*
*I"Piano	*	*
*clefF4	*clefG2	*
*k[]	*k[]	*
=1	=1	=1
!	!LO:TX:a:i:t=plus lent	!
1D-X 1B-X	1d-X 1g-X	p
=	=	=
*	*^	*
2Dn 2c-X	1a-X;	2f	.
2r	.	2r	.
*	*v	*v	*
=	=	=
1E-X 1cn	1e-X 1a-X	p
=	=	=
1En; 1d-X	1g; 1b-X	.
=	=	=
4F 4c-X	4dn 4a-X	.
*tremolo	*	*
!	!	!LO:DY:a
64BBBLLLL	4r	p
64BBn	.	.
64BBB	.	.
64BBn	.	.
64BBB	.	.
64BBn	.	.
64BBB	.	.
64BBn	.	.
64BBB	.	.
64BBn	.	.
64BBB	.	.
64BBn	.	.
64BBB	.	.
64BBn	.	.
64BBB	.	.
64BBn	.	.
64BBB	2r;	.
64BBn	.	.
64BBB	.	.
64BBn	.	.
64BBB	.	.
64BBn	.	.
64BBB	.	.
64BBn	.	.
64BBB	.	.
64BBn	.	.
64BBB	.	.
64BBn	.	.
64BBB	.	.
64BBn	.	.
64BBB	.	.
64BBn	.	.
64BBB	.	.
64BBn	.	.
64BBB	.	.
64BBn	.	.
64BBB	.	.
64BBn	.	.
64BBB	.	.
64BBn	.	.
64BBB	.	.
64BBn	.	.
64BBB	.	.
64BBn	.	.
64BBB	.	.
64BBn	.	.
64BBB	.	.
64BBnJJJJ	.	.
=	=	=
64BBBnLLLL	1r;	.
[64BBn	.	.
64BBBn	.	.
[64BBn	.	.
64BBBn	.	.
[64BBn	.	.
64BBBn	.	.
[64BBn	.	.
64BBBn	.	.
[64BBn	.	.
64BBBn	.	.
[64BBn	.	.
64BBBn	.	.
[64BBn	.	.
64BBBn	.	.
[64BBn	.	.
64BBBn	.	.
[64BBn	.	.
64BBBn	.	.
[64BBn	.	.
64BBBn	.	.
[64BBn	.	.
64BBBn	.	.
[64BBn	.	.
64BBBn	.	.
[64BBn	.	.
64BBBn	.	.
[64BBn	.	.
64BBBn	.	.
[64BBn	.	.
64BBBn	.	.
[64BBnJJJJ	.	.
*Xtremolo	*	*
8BBB 8BB]	.	.
8r	.	.
4r;	.	.
=	=	=
1r	1r	.
=||	=||	=||
*-	*-	*-
!!!system-decoration: {(s1,s2)}
